X:98
T: SCHIER DREISSIG JAHRE BIST DU ALT
N: B0585
O: Europa, Mitteleuropa, Deutschland
R: Staende -, Soldaten - Lied
M: 4/4
L: 1/8
K: C
G,2 | C2C2C2E2 | C2G,2B,2
G,2 | E2C2EDDB, | C4z2
CD | E2EEFEDC | D3ED2
G,B, | D2DDEDCB, | C2G,2E,2
G,2 | E2ECEDDB, | C4z2
CD | E2EEFEDC | D3ED2
G,B, | D2DDEDCB, | C2G,2E,2
G,2 | E2ECEDDB, | C4z2

@@@ Tune index: 2316
